X: 52
T: St Patrick's Day
T: Saint Patrick's Day
O: "In Love in a Village"
%R: jig
B: "The Hibernian Muse" p.32 #1
F: http://imslp.org/wiki/The_Hibernian_Muse_%28Various%29
Z: 2015 John Chambers <jc:trillian.mit.edu>
P: No. LII.
M: 6/8
L: 1/8
K: G
% - - - - - - - - - - - - - - - - - - - - - - - - - - - - -
V: 1
D |\
GAG GAB | ded dBG |\
BAB GED | EFE E2D |\
GAG GAB | ded dBG |\
BAB GED | E3 G3 :|\
|:\
def g2e | f2d e2B | def g2e |
f2d e2e |\
def g>fe | f>ed efg | GAG GAB |\
ded dBG | BAB GED | EFE E2D |\
GAG GAB | ded dBG | BAB GED | E3 G3 :|
% - - - - - - - - - - - - - - - - - - - - - - - - - - - - -
V: 2 clef=bass middle=d
z |\
g3 g3 | g3 g3 | g3 g3 | g3 g3 | g3 g3 | g3 g3 | g3 g3 |
g3 g3 :|\
|:\
g3 g3 | g3 g3 | g3 g3 | g3 g3 | g3 g3 | g3 g3 | g3 g3 |
g3 g3 | g3 g3 | g3 g3 | g3 g3 | g3 g3 | g3 g3 | g3 g3 :|

%%sep 2 1 500
%%sep 1 1 500

